bernoullicharts/exp_-x_alg_2__bits.svg

<?xml version="1.0" encoding="utf-8" standalone="no"?>
<!DOCTYPE svg PUBLIC "-//W3C//DTD SVG 1.1//EN"
  "http://www.w3.org/Graphics/SVG/1.1/DTD/svg11.dtd">
<!-- Created with matplotlib (https://matplotlib.org/) -->
<svg height="345.6pt" version="1.1" viewBox="0 0 460.8 345.6" width="460.8pt" xmlns="http://www.w3.org/2000/svg" xmlns:xlink="http://www.w3.org/1999/xlink">
 <defs>
  <style type="text/css">
*{stroke-linecap:butt;stroke-linejoin:round;}
  </style>
 </defs>
 <g id="figure_1">
  <g id="patch_1">
   <path d="M 0 345.6 
L 460.8 345.6 
L 460.8 0 
L 0 0 
z
" style="fill:#ffffff;"/>
  </g>
  <g id="axes_1">
   <g id="patch_2">
    <path d="M 57.6 307.584 
L 414.72 307.584 
L 414.72 41.472 
L 57.6 41.472 
z
" style="fill:#ffffff;"/>
   </g>
   <g id="matplotlib.axis_1">
    <g id="xtick_1">
     <g id="line2d_1">
      <defs>
       <path d="M 0 0 
L 0 3.5 
" id="mc3c9f6b762" style="stroke:#000000;stroke-width:0.8;"/>
      </defs>
      <g>
       <use style="stroke:#000000;stroke-width:0.8;" x="73.799924" xlink:href="#mc3c9f6b762" y="307.584"/>
      </g>
     </g>
     <g id="text_1">
      <text style="font-family:DejaVu Sans;font-size:10px;font-style:normal;font-weight:normal;text-anchor:middle;" transform="rotate(-0, 73.799924, 322.182437)" x="73.799924" y="322.182437">0.0</text>
     </g>
    </g>
    <g id="xtick_2">
     <g id="line2d_2">
      <g>
       <use style="stroke:#000000;stroke-width:0.8;" x="139.406515" xlink:href="#mc3c9f6b762" y="307.584"/>
      </g>
     </g>
     <g id="text_2">
      <text style="font-family:DejaVu Sans;font-size:10px;font-style:normal;font-weight:normal;text-anchor:middle;" transform="rotate(-0, 139.406515, 322.182437)" x="139.406515" y="322.182437">0.2</text>
     </g>
    </g>
    <g id="xtick_3">
     <g id="line2d_3">
      <g>
       <use style="stroke:#000000;stroke-width:0.8;" x="205.013105" xlink:href="#mc3c9f6b762" y="307.584"/>
      </g>
     </g>
     <g id="text_3">
      <text style="font-family:DejaVu Sans;font-size:10px;font-style:normal;font-weight:normal;text-anchor:middle;" transform="rotate(-0, 205.013105, 322.182437)" x="205.013105" y="322.182437">0.4</text>
     </g>
    </g>
    <g id="xtick_4">
     <g id="line2d_4">
      <g>
       <use style="stroke:#000000;stroke-width:0.8;" x="270.619696" xlink:href="#mc3c9f6b762" y="307.584"/>
      </g>
     </g>
     <g id="text_4">
      <text style="font-family:DejaVu Sans;font-size:10px;font-style:normal;font-weight:normal;text-anchor:middle;" transform="rotate(-0, 270.619696, 322.182437)" x="270.619696" y="322.182437">0.6</text>
     </g>
    </g>
    <g id="xtick_5">
     <g id="line2d_5">
      <g>
       <use style="stroke:#000000;stroke-width:0.8;" x="336.226287" xlink:href="#mc3c9f6b762" y="307.584"/>
      </g>
     </g>
     <g id="text_5">
      <text style="font-family:DejaVu Sans;font-size:10px;font-style:normal;font-weight:normal;text-anchor:middle;" transform="rotate(-0, 336.226287, 322.182437)" x="336.226287" y="322.182437">0.8</text>
     </g>
    </g>
    <g id="xtick_6">
     <g id="line2d_6">
      <g>
       <use style="stroke:#000000;stroke-width:0.8;" x="401.832878" xlink:href="#mc3c9f6b762" y="307.584"/>
      </g>
     </g>
     <g id="text_6">
      <text style="font-family:DejaVu Sans;font-size:10px;font-style:normal;font-weight:normal;text-anchor:middle;" transform="rotate(-0, 401.832878, 322.182437)" x="401.832878" y="322.182437">1.0</text>
     </g>
    </g>
    <g id="text_7">
     <text style="font-family:DejaVu Sans;font-size:10px;font-style:normal;font-weight:normal;text-anchor:middle;" transform="rotate(-0, 236.16, 335.860562)" x="236.16" y="335.860562">Probability</text>
    </g>
   </g>
   <g id="matplotlib.axis_2">
    <g id="ytick_1">
     <g id="line2d_7">
      <defs>
       <path d="M 0 0 
L -3.5 0 
" id="m67cf40aa6a" style="stroke:#000000;stroke-width:0.8;"/>
      </defs>
      <g>
       <use style="stroke:#000000;stroke-width:0.8;" x="57.6" xlink:href="#m67cf40aa6a" y="296.597174"/>
      </g>
     </g>
     <g id="text_8">
      <text style="font-family:DejaVu Sans;font-size:10px;font-style:normal;font-weight:normal;text-anchor:end;" transform="rotate(-0, 50.6, 300.396393)" x="50.6" y="300.396393">0</text>
     </g>
    </g>
    <g id="ytick_2">
     <g id="line2d_8">
      <g>
       <use style="stroke:#000000;stroke-width:0.8;" x="57.6" xlink:href="#m67cf40aa6a" y="240.521628"/>
      </g>
     </g>
     <g id="text_9">
      <text style="font-family:DejaVu Sans;font-size:10px;font-style:normal;font-weight:normal;text-anchor:end;" transform="rotate(-0, 50.6, 244.320847)" x="50.6" y="244.320847">100</text>
     </g>
    </g>
    <g id="ytick_3">
     <g id="line2d_9">
      <g>
       <use style="stroke:#000000;stroke-width:0.8;" x="57.6" xlink:href="#m67cf40aa6a" y="184.446082"/>
      </g>
     </g>
     <g id="text_10">
      <text style="font-family:DejaVu Sans;font-size:10px;font-style:normal;font-weight:normal;text-anchor:end;" transform="rotate(-0, 50.6, 188.245301)" x="50.6" y="188.245301">200</text>
     </g>
    </g>
    <g id="ytick_4">
     <g id="line2d_10">
      <g>
       <use style="stroke:#000000;stroke-width:0.8;" x="57.6" xlink:href="#m67cf40aa6a" y="128.370536"/>
      </g>
     </g>
     <g id="text_11">
      <text style="font-family:DejaVu Sans;font-size:10px;font-style:normal;font-weight:normal;text-anchor:end;" transform="rotate(-0, 50.6, 132.169754)" x="50.6" y="132.169754">300</text>
     </g>
    </g>
    <g id="ytick_5">
     <g id="line2d_11">
      <g>
       <use style="stroke:#000000;stroke-width:0.8;" x="57.6" xlink:href="#m67cf40aa6a" y="72.294989"/>
      </g>
     </g>
     <g id="text_12">
      <text style="font-family:DejaVu Sans;font-size:10px;font-style:normal;font-weight:normal;text-anchor:end;" transform="rotate(-0, 50.6, 76.094208)" x="50.6" y="76.094208">400</text>
     </g>
    </g>
    <g id="text_13">
     <text style="font-family:DejaVu Sans;font-size:10px;font-style:normal;font-weight:normal;text-anchor:middle;" transform="rotate(-90, 25.432812, 174.528)" x="25.432812" y="174.528">Average Bits Consumed Per Call</text>
    </g>
   </g>
   <g id="line2d_12">
    <path clip-path="url(#p47ccbad26a)" d="M 73.832727 295.481271 
L 77.145529 295.440897 
L 80.45833 295.427438 
L 83.771132 295.366877 
L 87.083933 295.419588 
L 90.396735 295.488 
L 93.709536 295.454355 
L 97.022338 295.359026 
L 100.335139 295.370241 
L 103.647941 295.334353 
L 106.960742 295.33211 
L 110.273544 295.392672 
L 113.586345 295.226688 
L 116.899147 295.215473 
L 120.211948 295.181828 
L 123.52475 295.25809 
L 126.837551 295.271548 
L 130.150353 295.107808 
L 133.463154 295.071919 
L 136.775955 295.086499 
L 140.088757 295.170612 
L 143.401558 295.04276 
L 146.71436 295.11678 
L 150.027161 294.904814 
L 153.339963 295.123509 
L 156.652764 294.887992 
L 159.965566 294.927245 
L 163.278367 294.889113 
L 166.591169 294.876777 
L 169.90397 294.844253 
L 173.216772 294.641259 
L 176.529573 294.617708 
L 179.842375 294.573969 
L 183.155176 294.524622 
L 186.467978 294.477519 
L 189.780779 294.473033 
L 193.093581 294.400134 
L 196.406382 294.284619 
L 199.719184 294.311535 
L 203.031985 294.136579 
L 206.344787 294.413593 
L 209.657588 294.264432 
L 212.97039 294.37434 
L 216.283191 294.026671 
L 219.595993 293.91452 
L 222.908794 293.708162 
L 226.221596 293.603862 
L 229.534397 293.723863 
L 232.847199 293.682367 
L 236.16 293.786668 
L 239.472801 293.536571 
L 242.785603 293.332456 
L 246.098404 293.190024 
L 249.411206 292.958993 
L 252.724007 293.007218 
L 256.036809 293.266287 
L 259.34961 292.842356 
L 262.662412 292.836748 
L 265.975213 292.42964 
L 269.288015 292.542912 
L 272.600816 292.300666 
L 275.913618 292.357863 
L 279.226419 292.288329 
L 282.539221 291.827388 
L 285.852022 291.697293 
L 289.164824 291.61318 
L 292.477625 290.968311 
L 295.790427 291.0199 
L 299.103228 290.654288 
L 302.41603 290.805692 
L 305.728831 290.772047 
L 309.041633 290.092411 
L 312.354434 289.628105 
L 315.667236 288.785851 
L 318.980037 288.769028 
L 322.292839 288.407902 
L 325.60564 288.161169 
L 328.918442 288.201544 
L 332.231243 287.869576 
L 335.544045 287.173118 
L 338.856846 285.222811 
L 342.169647 286.300583 
L 345.482449 284.884114 
L 348.79525 283.469889 
L 352.108052 282.147628 
L 355.420853 282.06015 
L 358.733655 280.179376 
L 362.046456 278.838049 
L 365.359258 276.873162 
L 368.672059 276.28549 
L 371.984861 273.540031 
L 375.297662 271.307103 
L 378.610464 265.069259 
L 381.923265 262.404549 
L 385.236067 250.663451 
L 388.548868 243.676438 
L 391.86167 220.863785 
L 395.174471 189.308953 
L 398.487273 53.568 
" style="fill:none;stroke:#1f77b4;stroke-linecap:square;stroke-width:1.5;"/>
   </g>
   <g id="patch_3">
    <path d="M 57.6 307.584 
L 57.6 41.472 
" style="fill:none;stroke:#000000;stroke-linecap:square;stroke-linejoin:miter;stroke-width:0.8;"/>
   </g>
   <g id="patch_4">
    <path d="M 414.72 307.584 
L 414.72 41.472 
" style="fill:none;stroke:#000000;stroke-linecap:square;stroke-linejoin:miter;stroke-width:0.8;"/>
   </g>
   <g id="patch_5">
    <path d="M 57.6 307.584 
L 414.72 307.584 
" style="fill:none;stroke:#000000;stroke-linecap:square;stroke-linejoin:miter;stroke-width:0.8;"/>
   </g>
   <g id="patch_6">
    <path d="M 57.6 41.472 
L 414.72 41.472 
" style="fill:none;stroke:#000000;stroke-linecap:square;stroke-linejoin:miter;stroke-width:0.8;"/>
   </g>
   <g id="text_14">
    <text style="font-family:DejaVu Sans;font-size:12px;font-style:normal;font-weight:normal;text-anchor:middle;" transform="rotate(-0, 236.16, 35.472)" x="236.16" y="35.472">Avg. Bits Consumed by exp(-x) (Alg. 2) Algorithm</text>
   </g>
   <g id="legend_1">
    <g id="patch_7">
     <path d="M 64.6 64.150125 
L 171.842187 64.150125 
Q 173.842187 64.150125 173.842187 62.150125 
L 173.842187 48.472 
Q 173.842187 46.472 171.842187 46.472 
L 64.6 46.472 
Q 62.6 46.472 62.6 48.472 
L 62.6 62.150125 
Q 62.6 64.150125 64.6 64.150125 
z
" style="fill:#ffffff;opacity:0.8;stroke:#cccccc;stroke-linejoin:miter;"/>
    </g>
    <g id="line2d_13">
     <path d="M 66.6 54.570438 
L 86.6 54.570438 
" style="fill:none;stroke:#1f77b4;stroke-linecap:square;stroke-width:1.5;"/>
    </g>
    <g id="line2d_14"/>
    <g id="text_15">
     <text style="font-family:DejaVu Sans;font-size:10px;font-style:normal;font-weight:normal;text-anchor:start;" transform="rotate(-0, 94.6, 58.070438)" x="94.6" y="58.070438">exp(-x) (Alg. 2)</text>
    </g>
   </g>
  </g>
 </g>
 <defs>
  <clipPath id="p47ccbad26a">
   <rect height="266.112" width="357.12" x="57.6" y="41.472"/>
  </clipPath>
 </defs>
</svg>

<svg height="460.8" viewBox="0 0 460.8 345.6" width="614.4" xmlns="http://www.w3.org/2000/svg" xmlns:xlink="http://www.w3.org/1999/xlink"><defs><style>*{stroke-linecap:butt;stroke-linejoin:round}</style></defs><g id="figure_1"><path d="M0 345.6h460.8V0H0z" fill="#fff" id="patch_1"/><g id="axes_1"><path d="M57.6 307.584h357.12V41.472H57.6z" fill="#fff" id="patch_2"/><g id="matplotlib.axis_1"><g id="xtick_1"><g id="line2d_1"><defs><path d="M0 0v3.5" id="mc3c9f6b762" stroke="#000" stroke-width=".8"/></defs><use x="73.8" xlink:href="#mc3c9f6b762" y="307.584" stroke="#000" stroke-width=".8"/></g><text x="73.8" y="322.182" font-family="DejaVu Sans" font-size="10" font-weight="400" text-anchor="middle" id="text_1">0.0</text></g><g id="xtick_2"><use x="139.407" xlink:href="#mc3c9f6b762" y="307.584" stroke="#000" stroke-width=".8" id="line2d_2"/><text x="139.407" y="322.182" font-family="DejaVu Sans" font-size="10" font-weight="400" text-anchor="middle" id="text_2">0.2</text></g><g id="xtick_3"><use x="205.013" xlink:href="#mc3c9f6b762" y="307.584" stroke="#000" stroke-width=".8" id="line2d_3"/><text x="205.013" y="322.182" font-family="DejaVu Sans" font-size="10" font-weight="400" text-anchor="middle" id="text_3">0.4</text></g><g id="xtick_4"><use x="270.62" xlink:href="#mc3c9f6b762" y="307.584" stroke="#000" stroke-width=".8" id="line2d_4"/><text x="270.62" y="322.182" font-family="DejaVu Sans" font-size="10" font-weight="400" text-anchor="middle" id="text_4">0.6</text></g><g id="xtick_5"><use x="336.226" xlink:href="#mc3c9f6b762" y="307.584" stroke="#000" stroke-width=".8" id="line2d_5"/><text x="336.226" y="322.182" font-family="DejaVu Sans" font-size="10" font-weight="400" text-anchor="middle" id="text_5">0.8</text></g><g id="xtick_6"><use x="401.833" xlink:href="#mc3c9f6b762" y="307.584" stroke="#000" stroke-width=".8" id="line2d_6"/><text x="401.833" y="322.182" font-family="DejaVu Sans" font-size="10" font-weight="400" text-anchor="middle" id="text_6">1.0</text></g><text x="236.16" y="335.861" font-family="DejaVu Sans" font-size="10" font-weight="400" text-anchor="middle" id="text_7">Probability</text></g><g id="matplotlib.axis_2"><g id="ytick_1"><g id="line2d_7"><defs><path d="M0 0h-3.5" id="m67cf40aa6a" stroke="#000" stroke-width=".8"/></defs><use x="57.6" xlink:href="#m67cf40aa6a" y="296.597" stroke="#000" stroke-width=".8"/></g><text x="50.6" y="300.396" font-family="DejaVu Sans" font-size="10" font-weight="400" text-anchor="end" id="text_8">0</text></g><g id="ytick_2"><use x="57.6" xlink:href="#m67cf40aa6a" y="240.522" stroke="#000" stroke-width=".8" id="line2d_8"/><text x="50.6" y="244.321" font-family="DejaVu Sans" font-size="10" font-weight="400" text-anchor="end" id="text_9">100</text></g><g id="ytick_3"><use x="57.6" xlink:href="#m67cf40aa6a" y="184.446" stroke="#000" stroke-width=".8" id="line2d_9"/><text x="50.6" y="188.245" font-family="DejaVu Sans" font-size="10" font-weight="400" text-anchor="end" id="text_10">200</text></g><g id="ytick_4"><use x="57.6" xlink:href="#m67cf40aa6a" y="128.371" stroke="#000" stroke-width=".8" id="line2d_10"/><text x="50.6" y="132.17" font-family="DejaVu Sans" font-size="10" font-weight="400" text-anchor="end" id="text_11">300</text></g><g id="ytick_5"><use x="57.6" xlink:href="#m67cf40aa6a" y="72.295" stroke="#000" stroke-width=".8" id="line2d_11"/><text x="50.6" y="76.094" font-family="DejaVu Sans" font-size="10" font-weight="400" text-anchor="end" id="text_12">400</text></g><text transform="rotate(-90 25.433 174.528)" x="25.433" y="174.528" font-family="DejaVu Sans" font-size="10" font-weight="400" text-anchor="middle" id="text_13">Average Bits Consumed Per Call</text></g><path clip-path="url(#p47ccbad26a)" d="M73.833 295.481l3.313-.04 3.312-.014 3.313-.06 3.313.053 3.313.068 3.313-.034 3.312-.095 3.313.011 3.313-.036 3.313-.002 3.313.06 3.312-.165 3.313-.012 3.313-.033 3.313.076 3.313.014 3.312-.164 3.313-.036 3.313.014 3.313.085 3.313-.128 3.312.074 3.313-.212 3.313.219 3.313-.236 3.313.04 3.312-.039 3.313-.012 3.313-.033 3.313-.203 3.313-.023 3.312-.044 3.313-.05 3.313-.046 3.313-.005 3.313-.073 3.312-.115 3.313.027 3.313-.175 3.313.277 3.313-.15 3.312.11 3.313-.347 3.313-.112 3.313-.207 3.313-.104 3.312.12 3.313-.042 3.313.105 3.313-.25 3.313-.205 3.312-.142 3.313-.231 3.313.048 3.313.26 3.313-.425 3.312-.005 3.313-.407 3.313.113 3.313-.242 3.313.057 3.312-.07 3.313-.46 3.313-.13 3.313-.085 3.313-.645 3.312.052 3.313-.366 3.313.152 3.313-.034 3.313-.68 3.312-.464 3.313-.842 3.313-.017 3.313-.361 3.313-.247 3.312.04 3.313-.331 3.313-.697 3.313-1.95 3.313 1.078 3.312-1.417 3.313-1.414 3.313-1.322 3.313-.088 3.313-1.88 3.312-1.342 3.313-1.965 3.313-.588 3.313-2.745 3.313-2.233 3.312-6.238 3.313-2.664 3.313-11.742 3.313-6.987 3.313-22.812 3.312-31.555 3.313-135.741" fill="none" stroke="#1f77b4" stroke-linecap="square" stroke-width="1.5" id="line2d_12"/><path d="M57.6 307.584V41.472" fill="none" stroke="#000" stroke-linecap="square" stroke-width=".8" id="patch_3"/><path d="M414.72 307.584V41.472" fill="none" stroke="#000" stroke-linecap="square" stroke-width=".8" id="patch_4"/><path d="M57.6 307.584h357.12" fill="none" stroke="#000" stroke-linecap="square" stroke-width=".8" id="patch_5"/><path d="M57.6 41.472h357.12" fill="none" stroke="#000" stroke-linecap="square" stroke-width=".8" id="patch_6"/><text x="236.16" y="35.472" font-family="DejaVu Sans" font-size="12" font-weight="400" text-anchor="middle" id="text_14">Avg. Bits Consumed by exp(-x) (Alg. 2) Algorithm</text><g id="legend_1"><path d="M64.6 64.15h107.242q2 0 2-2V48.472q0-2-2-2H64.6q-2 0-2 2V62.15q0 2 2 2z" fill="#fff" opacity=".8" stroke="#ccc" id="patch_7"/><path d="M66.6 54.57h20" fill="none" stroke="#1f77b4" stroke-linecap="square" stroke-width="1.5" id="line2d_13"/><text x="94.6" y="58.07" font-family="DejaVu Sans" font-size="10" font-weight="400" id="text_15">exp(-x) (Alg. 2)</text></g></g></g><defs><clipPath id="p47ccbad26a"><path d="M57.6 41.472h357.12v266.112H57.6z"/></clipPath></defs></svg>
